img/icons/camera.svg

<svg width="20" height="21" viewBox="0 0 20 21" fill="none" xmlns="http://www.w3.org/2000/svg">
<path d="M18.75 15.5C18.75 15.8315 18.6183 16.1495 18.3839 16.3839C18.1495 16.6183 17.8315 16.75 17.5 16.75H2.5C2.16848 16.75 1.85054 16.6183 1.61612 16.3839C1.3817 16.1495 1.25 15.8315 1.25 15.5V8C1.25 7.66848 1.3817 7.35054 1.61612 7.11612C1.85054 6.8817 2.16848 6.75 2.5 6.75H3.965C4.95905 6.74946 5.91221 6.35425 6.615 5.65125L7.6525 4.61625C7.88625 4.38242 8.20312 4.25073 8.53375 4.25H11.4637C11.7952 4.25007 12.1131 4.38181 12.3475 4.61625L13.3825 5.65125C13.7308 5.99964 14.1443 6.276 14.5994 6.46453C15.0546 6.65305 15.5424 6.75006 16.035 6.75H17.5C17.8315 6.75 18.1495 6.8817 18.3839 7.11612C18.6183 7.35054 18.75 7.66848 18.75 8V15.5ZM2.5 5.5C1.83696 5.5 1.20107 5.76339 0.732233 6.23223C0.263392 6.70107 0 7.33696 0 8V15.5C0 16.163 0.263392 16.7989 0.732233 17.2678C1.20107 17.7366 1.83696 18 2.5 18H17.5C18.163 18 18.7989 17.7366 19.2678 17.2678C19.7366 16.7989 20 16.163 20 15.5V8C20 7.33696 19.7366 6.70107 19.2678 6.23223C18.7989 5.76339 18.163 5.5 17.5 5.5H16.035C15.372 5.49986 14.7362 5.23637 14.2675 4.7675L13.2325 3.7325C12.7638 3.26363 12.128 3.00014 11.465 3H8.535C7.87201 3.00014 7.23623 3.26363 6.7675 3.7325L5.7325 4.7675C5.26377 5.23637 4.62799 5.49986 3.965 5.5H2.5Z" fill="#EAEAEA"/>
<path d="M10 14.25C9.1712 14.25 8.37634 13.9208 7.79029 13.3347C7.20424 12.7487 6.875 11.9538 6.875 11.125C6.875 10.2962 7.20424 9.50134 7.79029 8.91529C8.37634 8.32924 9.1712 8 10 8C10.8288 8 11.6237 8.32924 12.2097 8.91529C12.7958 9.50134 13.125 10.2962 13.125 11.125C13.125 11.9538 12.7958 12.7487 12.2097 13.3347C11.6237 13.9208 10.8288 14.25 10 14.25ZM10 15.5C11.1603 15.5 12.2731 15.0391 13.0936 14.2186C13.9141 13.3981 14.375 12.2853 14.375 11.125C14.375 9.96468 13.9141 8.85188 13.0936 8.03141C12.2731 7.21094 11.1603 6.75 10 6.75C8.83968 6.75 7.72688 7.21094 6.90641 8.03141C6.08594 8.85188 5.625 9.96468 5.625 11.125C5.625 12.2853 6.08594 13.3981 6.90641 14.2186C7.72688 15.0391 8.83968 15.5 10 15.5ZM3.75 8.625C3.75 8.79076 3.68415 8.94973 3.56694 9.06694C3.44973 9.18415 3.29076 9.25 3.125 9.25C2.95924 9.25 2.80027 9.18415 2.68306 9.06694C2.56585 8.94973 2.5 8.79076 2.5 8.625C2.5 8.45924 2.56585 8.30027 2.68306 8.18306C2.80027 8.06585 2.95924 8 3.125 8C3.29076 8 3.44973 8.06585 3.56694 8.18306C3.68415 8.30027 3.75 8.45924 3.75 8.625Z" fill="#EAEAEA"/>
</svg>

<svg width="20" height="21" fill="none" xmlns="http://www.w3.org/2000/svg"><path d="M18.75 15.5a1.25 1.25 0 01-1.25 1.25h-15a1.25 1.25 0 01-1.25-1.25V8A1.25 1.25 0 012.5 6.75h1.465a3.75 3.75 0 002.65-1.099l1.037-1.035a1.25 1.25 0 01.882-.366h2.93c.331 0 .65.132.883.366l1.036 1.035a3.75 3.75 0 002.652 1.099H17.5A1.25 1.25 0 0118.75 8v7.5zM2.5 5.5A2.5 2.5 0 000 8v7.5A2.5 2.5 0 002.5 18h15a2.5 2.5 0 002.5-2.5V8a2.5 2.5 0 00-2.5-2.5h-1.465a2.5 2.5 0 01-1.768-.732l-1.034-1.035A2.5 2.5 0 0011.464 3h-2.93a2.5 2.5 0 00-1.768.732L5.732 4.768a2.5 2.5 0 01-1.767.733H2.5z" fill="#EAEAEA"/><path d="M10 14.25A3.125 3.125 0 1110 8a3.125 3.125 0 010 6.25zm0 1.25a4.375 4.375 0 100-8.75 4.375 4.375 0 000 8.75zM3.75 8.625a.625.625 0 11-1.25 0 .625.625 0 011.25 0z" fill="#EAEAEA"/></svg>
